COLOR/places 16/16/network-workgroup.svg

<svg height="16" viewBox="0 0 4.2333332 4.233333" width="16" xmlns="http://www.w3.org/2000/svg"><ellipse cx="-2.116668" cy="-2.257779" opacity=".1" rx="1.975554" ry="1.834443" transform="scale(-1)"/><circle cx="2.116668" cy="2.116668" fill="#8c59d9" r="2.116665"/><g fill="#fff"><path d="m1.1607339.18146029a2.1166619 2.1414349 0 0 0 -.16981583.09844751c-.0163688.36482844-.0166793.7237245.00508 1.0720063-.2218914-.13992-.43875644-.284144-.65064026-.42918928a2.1166619 2.1414349 0 0 0 -.08586322.14091918c.20446138.1402164.41382213.2796906.62838138.4156736-.30270001.1170459-.59514692.2593422-.87833697.4285456a2.1166619 2.1414349 0 0 0 -.009539.1840286 2.1166619 2.1414349 0 0 0 .00056444.012897c.32413755-.2015201.66357442-.3623471 1.01571986-.4935324.025202.263917.062557.521391.116394.7695771.05929.2733461.1396265.5346216.2391379.7837333-.1429116.04646-.2862887.086357-.4248571.1151804-.19370582.040293-.37175969.06041-.53807029.072709a2.1166619 2.1414349 0 0 0 .12529528.1576496c.14025587-.0144214.28962187-.0364832.44521098-.0688512.14843173-.0308693.30249393-.0729205.45666053-.1235455.1490047.3342327.3447596.6377936.5825909.910499a2.1166619 2.1414349 0 0 0 .098021.00512 2.1166619 2.1414349 0 0 0 .1202068-.00386c-.2705658-.2817071-.485269-.6051166-.6474648-.9658358.4382879-.1647951.8689445-.4215042 1.1963475-.8094718.4267084.1600762.8693228.2778813 1.3254585.3455384a2.1166619 2.1414349 0 0 0 .0483362-.1589333c-.4415053-.063785-.8712814-.1771367-1.2872965-.3313822.1714809-.3726601.3088187-.764246.4070489-1.1691697.2317154-.0205175.4680002-.0360962.7078861-.0482599a2.1166619 2.1414349 0 0 0 -.0909517-.15893344c-.1945808.01041066-.3883713.02122345-.5781374.03731837.0397589-.18807832.0668383-.37993856.0877706-.57331987a2.1166619 2.1414349 0 0 0 -.1520072-.10874595c-.0215052.23694789-.0555327.47090997-.1062142.70008554-.6977487.06753285-1.3624155.18306625-1.9862785.39186535-.0259926-.38650322-.0225214-.78886139-.0005645-1.19876628zm1.9481193.97677331c-.0957438.3781803-.2278124.7441828-.3898784 1.0945248-.5034925-.1991698-.9848052-.4544566-1.4469381-.7316155.5765147-.1868056 1.1898395-.2975918 1.8368165-.3629093zm-1.9245848.5031849c.4577726.2751496.9361277.5283507 1.4380312.7296823-.3014695.3379523-.6930355.5690046-1.0958539.7200329-.0972057-.2421917-.1763577-.4967869-.2346902-.7657191-.0478225-.220469-.0829704-.4490293-.1074871-.6839961z" fill-rule="evenodd" opacity=".5"/><ellipse cx="1.036381" cy="1.514186" rx=".255586" ry=".257479"/><ellipse cx="1.547133" cy="3.221207" rx=".255586" ry=".257479"/><ellipse cx="3.251042" cy="1.161374" rx=".255586" ry=".257479"/><ellipse cx="2.739868" cy="2.36294" rx=".255586" ry=".257479"/><path d="m8 0a7.9999946 7.9999946 0 0 0 -8 8 7.9999946 7.9999946 0 0 0 .00976563.2929688 7.9999946 7.9999946 0 0 1 7.99023437-7.7929688 7.9999946 7.9999946 0 0 1 7.990234 7.7070312 7.9999946 7.9999946 0 0 0 .009766-.2070312 7.9999946 7.9999946 0 0 0 -8-8z" opacity=".3" transform="scale(.26458332)"/></g><path d="m2.1166666 4.2333331a2.1166651 2.1166651 0 0 0 2.1166666-2.1166665 2.1166651 2.1166651 0 0 0 -.0025839-.0775147 2.1166651 2.1166651 0 0 1 -2.1140827 2.0618896 2.1166651 2.1166651 0 0 1 -2.1140826-2.0391519 2.1166651 2.1166651 0 0 0 -.002584.054777 2.1166651 2.1166651 0 0 0 2.1166666 2.1166665z" fill="#020000" opacity=".2"/></svg>

<?xml version="1.0" encoding="UTF-8" standalone="no"?>
<svg
   xmlns:dc="http://purl.org/dc/elements/1.1/"
   xmlns:cc="http://creativecommons.org/ns#"
   xmlns:rdf="http://www.w3.org/1999/02/22-rdf-syntax-ns#"
   xmlns:svg="http://www.w3.org/2000/svg"
   xmlns="http://www.w3.org/2000/svg"
   xmlns:sodipodi="http://sodipodi.sourceforge.net/DTD/sodipodi-0.dtd"
   xmlns:inkscape="http://www.inkscape.org/namespaces/inkscape"
   height="16"
   viewBox="0 0 4.2333332 4.233333"
   width="16"
   version="1.1"
   id="svg43"
   sodipodi:docname="network-workgroup.svg"
   inkscape:version="0.92.4 (5da689c313, 2019-01-14)">
  <metadata
     id="metadata49">
    <rdf:RDF>
      <cc:Work
         rdf:about="">
        <dc:format>image/svg+xml</dc:format>
        <dc:type
           rdf:resource="http://purl.org/dc/dcmitype/StillImage" />
      </cc:Work>
    </rdf:RDF>
  </metadata>
  <defs
     id="defs47" />
  <sodipodi:namedview
     pagecolor="#ffffff"
     bordercolor="#666666"
     borderopacity="1"
     objecttolerance="10"
     gridtolerance="10"
     guidetolerance="10"
     inkscape:pageopacity="0"
     inkscape:pageshadow="2"
     inkscape:window-width="1920"
     inkscape:window-height="1016"
     id="namedview45"
     showgrid="false"
     inkscape:zoom="14.75"
     inkscape:cx="-4.9830508"
     inkscape:cy="8"
     inkscape:window-x="0"
     inkscape:window-y="27"
     inkscape:window-maximized="1"
     inkscape:current-layer="svg43" />
  <linearGradient
     id="a"
     gradientUnits="userSpaceOnUse"
     x1="2.10208132"
     x2="2.10208132"
     y1="293.19585178353"
     y2="296.37084896">
    <stop
       offset="0"
       stop-color="#fff"
       id="stop2" />
    <stop
       offset=".125"
       stop-color="#fff"
       stop-opacity=".098039"
       id="stop4" />
    <stop
       offset=".92500001"
       stop-color="#fff"
       stop-opacity=".098039"
       id="stop6" />
    <stop
       offset="1"
       stop-color="#fff"
       stop-opacity=".498039"
       id="stop8" />
  </linearGradient>
  <clipPath
     id="b">
    <path
       d="m330.31054 236.5c4.54055 0 5.18946.64729 5.18946 5.18359v3.63282c0 4.53629-.64891 5.18359-5.18946 5.18359h-4.62109c-4.54053 0-5.18945-.6473-5.18945-5.18359v-3.63282c0-4.5363.64892-5.18359 5.18946-5.18359z"
       id="path11" />
  </clipPath>
  <linearGradient
     id="c"
     gradientTransform="matrix(.07222222 0 0 .07222225 .305856 275.12958)"
     gradientUnits="userSpaceOnUse"
     x1="13.735326"
     x2="38.099998"
     y1="249.69423"
     y2="292.76666">
    <stop
       offset="0"
       stop-color="#8c59d9"
       id="stop14" />
    <stop
       offset="1"
       stop-color="#a7a7f1"
       id="stop16" />
  </linearGradient>
  <ellipse
     style="display:inline;opacity:0.1;fill:#000000;fill-opacity:1;stroke:none;stroke-width:0.55156821;stroke-linecap:round;stroke-linejoin:round;stroke-miterlimit:4;stroke-dasharray:none;stroke-opacity:1;enable-background:new"
     id="path9498-0-0-2-3-3"
     cx="-2.116668"
     cy="-2.2577786"
     transform="scale(-1)"
     rx="1.9755535"
     ry="1.834443" />
  <circle
     style="display:inline;opacity:1;fill:#8c59d9;fill-opacity:1;stroke:none;stroke-width:0.52758694;stroke-linecap:round;stroke-linejoin:round;stroke-miterlimit:4;stroke-dasharray:none;stroke-opacity:1;enable-background:new"
     id="path9498-6-5-6-8"
     cx="2.116668"
     cy="2.116668"
     r="2.1166651" />
  <path
     style="color:#000000;font-style:normal;font-variant:normal;font-weight:normal;font-stretch:normal;font-size:medium;line-height:normal;font-family:sans-serif;font-variant-ligatures:normal;font-variant-position:normal;font-variant-caps:normal;font-variant-numeric:normal;font-variant-alternates:normal;font-feature-settings:normal;text-indent:0;text-align:start;text-decoration:none;text-decoration-line:none;text-decoration-style:solid;text-decoration-color:#000000;letter-spacing:normal;word-spacing:normal;text-transform:none;writing-mode:lr-tb;direction:ltr;text-orientation:mixed;dominant-baseline:auto;baseline-shift:baseline;text-anchor:start;white-space:normal;shape-padding:0;clip-rule:nonzero;display:inline;overflow:visible;visibility:visible;opacity:0.5;isolation:auto;mix-blend-mode:normal;color-interpolation:sRGB;color-interpolation-filters:linearRGB;solid-color:#000000;solid-opacity:1;vector-effect:none;fill:#ffffff;fill-opacity:1;fill-rule:evenodd;stroke:none;stroke-width:0.141111;stroke-linecap:butt;stroke-linejoin:miter;stroke-miterlimit:4;stroke-dasharray:none;stroke-dashoffset:0;stroke-opacity:1;color-rendering:auto;image-rendering:auto;shape-rendering:auto;text-rendering:auto;enable-background:accumulate"
     d="M 1.1607339,0.18146029 A 2.1166619,2.1414349 0 0 0 0.99091807,0.2799078 c -0.0163688,0.36482844 -0.0166793,0.7237245 0.00508,1.0720063 C 0.77410667,1.2119941 0.55724163,1.0677701 0.34535781,0.92272482 A 2.1166619,2.1414349 0 0 0 0.25949459,1.063644 C 0.46395597,1.2038604 0.67331672,1.3433346 0.88787597,1.4793176 0.58517596,1.5963635 0.29272905,1.7386598 0.009539,1.9078632 A 2.1166619,2.1414349 0 0 0 0,2.0918918 2.1166619,2.1414349 0 0 0 5.6444e-4,2.1047888 C 0.32470199,1.9032687 0.66413886,1.7424417 1.0162843,1.6112564 c 0.025202,0.263917 0.062557,0.521391 0.116394,0.7695771 0.05929,0.2733461 0.1396265,0.5346216 0.2391379,0.7837333 -0.1429116,0.04646 -0.2862887,0.086357 -0.4248571,0.1151804 -0.19370582,0.040293 -0.37175969,0.06041 -0.53807029,0.072709 A 2.1166619,2.1414349 0 0 0 0.53418409,3.5101058 C 0.67443996,3.4956844 0.82380596,3.4736226 0.97939507,3.4412546 1.1278268,3.4103853 1.281889,3.3683341 1.4360556,3.3177091 1.5850603,3.6519418 1.7808152,3.9555027 2.0186465,4.2282081 a 2.1166619,2.1414349 0 0 0 0.098021,0.00512 2.1166619,2.1414349 0 0 0 0.1202068,-0.00386 C 1.9663085,3.947761 1.7516053,3.6243515 1.5894095,3.2636323 2.0276974,3.0988372 2.458354,2.8421281 2.785757,2.4541605 3.2124654,2.6142367 3.6550798,2.7320418 4.1112155,2.7996989 A 2.1166619,2.1414349 0 0 0 4.1595517,2.6407656 C 3.7180464,2.5769806 3.2882703,2.4636289 2.8722552,2.3093834 3.0437361,1.9367233 3.1810739,1.5451374 3.2793041,1.1402137 3.5110195,1.1196962 3.7473043,1.1041175 3.9871902,1.0919538 A 2.1166619,2.1414349 0 0 0 3.8962385,0.93302036 C 3.7016577,0.94343102 3.5078672,0.95424381 3.3181011,0.97033873 3.35786,0.78226041 3.3849394,0.59040017 3.4058717,0.39701886 A 2.1166619,2.1414349 0 0 0 3.2538645,0.28827291 C 3.2323593,0.5252208 3.1983318,0.75918288 3.1476503,0.98835845 2.4499016,1.0558913 1.7852348,1.1714247 1.1613718,1.3802238 1.1353792,0.99372058 1.1388504,0.59136241 1.1608073,0.18145752 Z M 3.1088532,1.1582336 C 3.0131094,1.5364139 2.8810408,1.9024164 2.7189748,2.2527584 2.2154823,2.0535886 1.7341696,1.7983018 1.2720367,1.5211429 1.8485514,1.3343373 2.4618762,1.2235511 3.1088532,1.1582336 Z M 1.1842684,1.6614185 C 1.642041,1.9365681 2.1203961,2.1897692 2.6222996,2.3911008 2.3208301,2.7290531 1.9292641,2.9601054 1.5264457,3.1111337 1.42924,2.868942 1.350088,2.6143468 1.2917555,2.3454146 1.243933,2.1249456 1.2087851,1.8963853 1.1842684,1.6614185 Z"
     id="path1302"
     inkscape:connector-curvature="0" />
  <ellipse
     cy="1.5141859"
     cx="1.0363811"
     id="circle1312"
     style="display:inline;opacity:1;fill:#ffffff;fill-opacity:1;stroke:none;stroke-width:0.42333308;stroke-linecap:square;stroke-linejoin:round;stroke-miterlimit:4;stroke-dasharray:none;stroke-dashoffset:0;stroke-opacity:1;enable-background:new"
     rx="0.25558624"
     ry="0.25747907" />
  <ellipse
     style="display:inline;opacity:1;fill:#ffffff;fill-opacity:1;stroke:none;stroke-width:0.42333308;stroke-linecap:square;stroke-linejoin:round;stroke-miterlimit:4;stroke-dasharray:none;stroke-dashoffset:0;stroke-opacity:1;enable-background:new"
     id="circle1314"
     cx="1.5471333"
     cy="3.2212074"
     rx="0.25558624"
     ry="0.25747907" />
  <ellipse
     style="display:inline;opacity:1;fill:#ffffff;fill-opacity:1;stroke:none;stroke-width:0.42333308;stroke-linecap:square;stroke-linejoin:round;stroke-miterlimit:4;stroke-dasharray:none;stroke-dashoffset:0;stroke-opacity:1;enable-background:new"
     id="circle1316"
     cx="3.2510421"
     cy="1.1613737"
     rx="0.25558624"
     ry="0.25747907" />
  <ellipse
     cy="2.3629401"
     cx="2.7398677"
     id="circle1318"
     style="display:inline;opacity:1;fill:#ffffff;fill-opacity:1;stroke:none;stroke-width:0.42333308;stroke-linecap:square;stroke-linejoin:round;stroke-miterlimit:4;stroke-dasharray:none;stroke-dashoffset:0;stroke-opacity:1;enable-background:new"
     rx="0.25558624"
     ry="0.25747907" />
  <path
     style="display:inline;opacity:0.3;fill:#ffffff;fill-opacity:1;stroke:none;stroke-width:1.99402952;stroke-linecap:round;stroke-linejoin:round;stroke-miterlimit:4;stroke-dasharray:none;stroke-opacity:1;enable-background:new"
     d="M 8 0 A 7.9999946 7.9999946 0 0 0 0 8 A 7.9999946 7.9999946 0 0 0 0.009765625 8.2929688 A 7.9999946 7.9999946 0 0 1 8 0.5 A 7.9999946 7.9999946 0 0 1 15.990234 8.2070312 A 7.9999946 7.9999946 0 0 0 16 8 A 7.9999946 7.9999946 0 0 0 8 0 z "
     transform="scale(0.26458332)"
     id="circle843" />
  <path
     id="path848"
     d="M 2.1166666,4.2333331 A 2.1166651,2.1166651 0 0 0 4.2333332,2.1166666 2.1166651,2.1166651 0 0 0 4.2307493,2.0391519 2.1166651,2.1166651 0 0 1 2.1166666,4.1010415 2.1166651,2.1166651 0 0 1 0.002584,2.0618896 2.1166651,2.1166651 0 0 0 0,2.1166666 2.1166651,2.1166651 0 0 0 2.1166666,4.2333331 Z"
     style="display:inline;opacity:0.2;fill:#020000;fill-opacity:1;stroke:none;stroke-width:0.52758694;stroke-linecap:round;stroke-linejoin:round;stroke-miterlimit:4;stroke-dasharray:none;stroke-opacity:1;enable-background:new"
     inkscape:connector-curvature="0" />
</svg>
